modules/hawcons-stroke/icons/icon-30-sunrise.svg

<?xml version="1.0" encoding="UTF-8" standalone="no"?>
<svg width="32px" height="32px" viewBox="0 0 32 32" version="1.1" xmlns="http://www.w3.org/2000/svg" xmlns:xlink="http://www.w3.org/1999/xlink" xmlns:sketch="http://www.bohemiancoding.com/sketch/ns">
    <!-- Generator: Sketch 3.0.3 (7891) - http://www.bohemiancoding.com/sketch -->
    <title>icon 30 sunrise</title>
    <desc>Created with Sketch.</desc>
    <defs></defs>
    <g id="Page-1" stroke="none" stroke-width="1" fill="none" fill-rule="evenodd" sketch:type="MSPage">
        <g id="icon-30-sunrise" sketch:type="MSArtboardGroup" fill="#929292">
            <path d="M7.53725684,22 C7.25658346,22 7.02905273,22.2319336 7.02905273,22.5 C7.02905273,22.7761424 7.25566788,23 7.53725684,23 L13.6123861,23 L14.7790527,22 L16.5290527,20.5 L18.2790527,22 L19.4457194,23 L25.5208486,23 C25.801522,23 26.0290527,22.7680664 26.0290527,22.5 C26.0290527,22.2238576 25.8024376,22 25.5208486,22 L20.0290527,22 L16.5290527,19 L13.0290527,22 L7.53725684,22 L7.53725684,22 Z M21.9775785,20 C21.9924187,19.835319 22,19.6685448 22,19.5 C22,16.4624337 19.5375663,14 16.5,14 C13.4624337,14 11,16.4624337 11,19.5 C11,19.6685448 11.0075813,19.835319 11.0224215,20 L12.0274644,20 C12.0093167,19.8358331 12,19.6690045 12,19.5 C12,17.0147185 14.0147185,15 16.5,15 C18.9852815,15 21,17.0147185 21,19.5 C21,19.6690045 20.9906833,19.8358331 20.9725356,20 L21.9775785,20 L21.9775785,20 L21.9775785,20 Z M16.5290527,10 C16.2529104,10 16.0290527,10.2157526 16.0290527,10.495389 L16.0290527,12.504611 C16.0290527,12.7782068 16.2609863,13 16.5290527,13 C16.8051951,13 17.0290527,12.7842474 17.0290527,12.504611 L17.0290527,10.495389 C17.0290527,10.2217932 16.7971191,10 16.5290527,10 L16.5290527,10 L16.5290527,10 Z M23.2671105,12.7909949 C23.0718484,12.5957328 22.760997,12.5900017 22.5632642,12.7877344 L21.1425297,14.208469 C20.9490683,14.4019304 20.9562386,14.7227637 21.1457902,14.9123153 C21.3410523,15.1075774 21.6519037,15.1133085 21.8496365,14.9155758 L23.270371,13.4948412 C23.4638325,13.3013798 23.4566621,12.9805465 23.2671105,12.7909949 L23.2671105,12.7909949 L23.2671105,12.7909949 Z M26.0581055,19.5290527 C26.0581055,19.2529104 25.8423529,19.0290527 25.5627165,19.0290527 L23.5534945,19.0290527 C23.2798987,19.0290527 23.0581055,19.2609863 23.0581055,19.5290527 C23.0581055,19.8051951 23.2738581,20.0290527 23.5534945,20.0290527 L25.5627165,20.0290527 C25.8363123,20.0290527 26.0581055,19.7971191 26.0581055,19.5290527 L26.0581055,19.5290527 L26.0581055,19.5290527 Z M7,19.5290527 C7,19.8051951 7.2157526,20.0290527 7.49538898,20.0290527 L9.50461102,20.0290527 C9.7782068,20.0290527 10,19.7971191 10,19.5290527 C10,19.2529104 9.7842474,19.0290527 9.50461102,19.0290527 L7.49538898,19.0290527 C7.2217932,19.0290527 7,19.2609863 7,19.5290527 L7,19.5290527 L7,19.5290527 Z M9.79099493,12.7909949 C9.59573278,12.9862571 9.59000166,13.2971084 9.78773445,13.4948412 L11.208469,14.9155758 C11.4019304,15.1090372 11.7227637,15.1018668 11.9123153,14.9123153 C12.1075774,14.7170531 12.1133085,14.4062018 11.9155758,14.208469 L10.4948412,12.7877344 C10.3013798,12.594273 9.9805465,12.6014434 9.79099493,12.7909949 L9.79099493,12.7909949 L9.79099493,12.7909949 Z" id="sunrise" sketch:type="MSShapeGroup"></path>
        </g>
    </g>
</svg>

<svg width="32" height="32" xmlns="http://www.w3.org/2000/svg"><path d="M7.537 22a.51.51 0 0 0-.508.5c0 .276.227.5.508.5h6.075l1.167-1 1.75-1.5 1.75 1.5 1.167 1h6.075a.51.51 0 0 0 .508-.5c0-.276-.227-.5-.508-.5h-5.492l-3.5-3-3.5 3H7.537zm14.44-2a5.5 5.5 0 1 0-10.955 0h1.005a4.5 4.5 0 1 1 8.945 0h1.006zM16.53 10c-.276 0-.5.216-.5.495v2.01c0 .273.232.495.5.495.276 0 .5-.216.5-.495v-2.01a.503.503 0 0 0-.5-.495zm6.738 2.791a.494.494 0 0 0-.704-.003l-1.42 1.42a.503.503 0 0 0 .003.704.494.494 0 0 0 .704.004l1.42-1.421a.503.503 0 0 0-.003-.704zm2.791 6.738c0-.276-.216-.5-.495-.5h-2.01a.503.503 0 0 0-.495.5c0 .276.216.5.495.5h2.01a.503.503 0 0 0 .495-.5zM7 19.53c0 .276.216.5.495.5h2.01a.503.503 0 0 0 .495-.5c0-.276-.216-.5-.495-.5h-2.01a.503.503 0 0 0-.495.5zm2.791-6.738a.494.494 0 0 0-.003.704l1.42 1.42a.503.503 0 0 0 .704-.003.494.494 0 0 0 .004-.704l-1.421-1.42a.503.503 0 0 0-.704.003z" fill="#929292" fill-rule="evenodd"/></svg>
